assets/symbols/mulberry/christian.svg

<svg height="850.394" viewBox="0 0 850.394 850.394" width="850.394" xmlns="http://www.w3.org/2000/svg"><path d="m673.43 226.9v176.79h-151.2v384.98l-199.25-.21v-384.99h-151.2v-176.79h157.02v-166.32l187.62.22v166.32z" fill="#fbee34"/><g fill="none"><g stroke="#231f20"><path d="m423.01 111.53v628.08m-203.83-423.95h408.24" stroke-width="60"/><path d="m522.23 788.67v-384.98h151.2v-176.79h-157.01v-166.32l-187.62-.22v166.32h-157.02v176.79h151.2v384.99z" stroke-width="21"/></g><path d="m0 0h850.394v850.394h-850.394z"/></g></svg>

<svg xmlns="http://www.w3.org/2000/svg" width="850.394" height="850.394" viewBox="0 0 850.394 850.394" overflow="visible"><path fill="#fbee34" d="M673.43 226.9v176.79h-151.2v384.98l-199.25-.21V403.47h-151.2V226.68H328.8V60.36l187.62.22V226.9z"/><g fill="none" stroke="#231f20"><path stroke-width="60" d="M423.01 111.53V739.61M219.18 315.66h408.24"/><path stroke-width="21" d="M522.23 788.67V403.69h151.2V226.9H516.42V60.58l-187.62-.22v166.32H171.78v176.79h151.2v384.99z"/></g><path fill="none" d="M0 0h850.394v850.394H0z"/></svg>
